X:1
T:Mentr'humil Virginella
T:Luca Marenzio
T:Source : Il terzo libro delle Villanelle a tre voci---Venetia---G.Vincenzi---1587. Editor : André Vierendeels (29/05/17).
T:Notes : Original clefs : G2, C1, C4 Editorial accidentals above the staff m 6/7 in S 2 : "B" notated as "C" in original print
T:Mentr'humil Virginella
T:©
T:©
C:Luca Marenzio
Z:©
%%score [ 1 2 3 ]
L:1/8
Q:1/4=120
M:4/4
K:C
V:1 treble nm="Soprano 1" snm="S 1"
V:2 treble nm="Soprano 2" snm="S 2"
V:3 treble-8 nm="Tenor" snm="T"
V:1
"^1)" e8 | e6 e2 | e4 e4 | f8 | e8 | e2 ef g2 e2 | d4 e2 c2- | c2 d2 B4- | B4 B4 :| z2 A2 c3 c | %10
w: Men-|tr'hu- mil|Vir- gi-|nel-|la,|va- ga spi- ra- v'al|ciel dol- ci|_ pa- ro-|* le.|Ap- par- ve'il|
w: All'|hor den-|tro sen-|tim-|mi,|tut- to'a- vam- par d'un|a- mo- ro-|* so Ze-|* lo,|e sem- bra-|
 d2 e2 f4 | e4 c2 c2- | c2 B2 A4 | A2 d3 c BA | G2 g3 f ed | c2 e3 d cB | A2 f2 e4 | d8 | %18
w: mio bel so-|le, ch'ad- dol-|* ci l'a-|ria'e fe _ _ _|_ piu _ _ _|_ chiar _ _ _|_ il gior-|no,|
w: re'an- co'un gie-|lo, in que-|* ste tem-|pre'al suon _ _ _|_ de _ _ _|_ dol- * * *|* ci'ac- cen-|ti,|
 B2 Bc d2 B2 | B2 Bc d4 | B4 e4- | e2 e2 e2 dc | B2 A2 B4 | A8 :| %24
w: ma par- ti to- sto,|ma par- ti to-|sto'e nac-|* quer l'om- * *|* br'è'in- tor-|no.|
w: creb- ber con l'om- bre,|creb- ber con l'om-|bre gli'as-|* pri miei _ _|_ tor- men-|ti.|
V:2
"^2)""^1)" c8 | c6 c2 | B4 ^c4 | d8 |"^#""^-natural" c4 c2 cd | e2 d2 B4- | B4 c2 A2- | %7
w: Men-|tr'hu- mil|Vir- gi-|nel|la, va- ga spi-|ra- v'al ciel|_ dol- ci|
w: Las-|so ch'il|cre- de-|ri-|a? mo- stra- va'io|ri- so ne|_ lab- bla|
 A2 A2 ^G4- | G4 ^G4 :| z2 E2 A3 A | B2 ^c2 d4 | G4 A2 A2- | A2 G2 ^F4 | ^F4 G4 | B4 c4- | %15
w: _ pa- ro-|* le,|Ap- par- ve'il|mio bel so-|le, ch'ad- dol-|* ci l'a-|ria'e fe|piu chiar|
w: _ fu- o-|* re,|e mi pian-|gea' il co-|re; e di-|* cea me-|sto'in fol-|te not-|
 c2 G2 A3 B | cA d4 ^c2 | d8 | G2 GA B2 G2 | G2 GA B4 | G4 G4- | G2 c2 c2 BA | ^G2 A4 G2 | A8 :| %24
w: _ il gior- *||no,|ma par- ti to- sto,|ma par- to to-|sto'e nac-|* quer l'om- * *|* br'è'in- tor-|no.|
w: * te'io _ _|_ _ pe- *|ro,|frà can- ti pri- vo,|frà can- ti pri-|vo del|_ mio lu- * *|* me'al- te-|ro.|
V:3
"^3)""^1)""^4)" A8 | A6 A2 | ^G4 A4 | D8 | A4 A2 AB | c2 A2 G4- | G4 E2 F2- | F2 D2 E4- | E4 E4 :| %9
w: Men-|tr'hu- mil|Vir- gi-|nel-|la, va- ga spi-|ra- v'al ciel|_ dol- ci|_ pa- ro-|* le.|
w: Co-|si mo-|ri- va|lun-|gi, al mio The-|so- ro'a la|_ mia Fil-|* li bel-|* la,|
 A4 A3 A | G2 E2 D4 | C4 F2 F2- | F2 G2 D4 | D4 G4 | E4 c4- | c4 A4 | F3 G A4 | D8 | z4 G2 GA | %19
w: Ap- par- ve'il|mio bel so-|le, ch'ad- dol-|* ci l'a-|ria'e fe|piu chiar|_ il|gior- * *|no,|ma par- ti|
w: del cor lu-|cen- te stel-|la; ma mi|_ so- sten-|ne à|me tor-|* nan-|do ar- di-|ta.)|col chia- ro|
 B2 G2 G2 GA | B2 G2 c4 | C4 C2 D2 | E8 | A8 :| %24
w: to- sto, ma par- ti|tos- to'e nac-|quer l'om- brè'in|tor-|no.|
w: sol, _ col chia- ro|sol dei duo|be- gli'oc- ch'in|vi-|ta.|

